brandFactory_export/3.Masa/Pagar factura_3Masa.svg

<?xml version="1.0" encoding="UTF-8"?>
<svg width="24px" height="24px" viewBox="0 0 24 24" version="1.1" xmlns="http://www.w3.org/2000/svg" xmlns:xlink="http://www.w3.org/1999/xlink">
    <title>3.Masa/Pagar factura_3Masa</title>
    <g id="Symbols" stroke="none" stroke-width="1" fill="none" fill-rule="evenodd">
        <g id="3.Masa/Pagar-factura_3Masa" fill="#5CB615" fill-rule="nonzero">
            <path d="M16.7428571,0.0302521008 C16.7596639,0.0302521008 16.7764706,0.0336134454 16.7932773,0.0369747899 L16.7932773,0.0369747899 L16.810084,0.0369747899 L16.8705882,0.0470588235 C16.8907563,0.0504201681 16.9109244,0.0537815126 16.9277311,0.0605042017 L16.9277311,0.0605042017 L16.9445378,0.0638655462 C16.9613445,0.0672268908 16.9747899,0.0705882353 16.9882353,0.0773109244 L16.9882353,0.0773109244 L17.0016807,0.0840336134 C17.0184874,0.0941176471 17.0386555,0.100840336 17.0554622,0.11092437 L17.0554622,0.11092437 L17.1058824,0.141176471 L17.1193277,0.151260504 C17.1327731,0.161344538 17.1428571,0.168067227 17.1563025,0.178151261 L17.1563025,0.178151261 L17.1697479,0.188235294 C17.1831933,0.201680672 17.2,0.21512605 17.2134454,0.228571429 L17.2134454,0.228571429 L23.4319328,6.44705882 C23.4453782,6.4605042 23.4588235,6.47394958 23.4722689,6.4907563 L23.4722689,6.4907563 L23.4823529,6.50420168 C23.492437,6.51764706 23.4991597,6.52773109 23.5092437,6.54117647 L23.5092437,6.54117647 L23.5193277,6.55462185 L23.5495798,6.60504202 C23.5596639,6.62521008 23.5697479,6.64537815 23.5764706,6.66218487 L23.5764706,6.66218487 L23.5831933,6.67563025 C23.589916,6.69243697 23.5966387,6.70588235 23.6,6.71932773 C23.6033613,6.72605042 23.6067227,6.72941176 23.6067227,6.73613445 C23.610084,6.75294118 23.6168067,6.7697479 23.6201681,6.78991597 L23.6201681,6.78991597 L23.6302521,6.85042017 L23.6302521,6.86722689 C23.6336134,6.88403361 23.6336134,6.89747899 23.6336134,6.91428571 L23.6337814,7.20643168 C23.6368609,12.6314961 23.6336714,21.740481 23.6369748,22.2756303 C23.6336134,23.1294118 23.102521,23.6638655 22.2521008,23.6638655 L22.2521008,23.6638655 L7.6302521,23.6638655 C7.18991597,23.6638655 6.84033613,23.5361345 6.59159664,23.2840336 C6.34285714,23.0319328 6.21512605,22.6789916 6.21512605,22.2420168 L6.21512605,22.2420168 L6.21512605,14.7697479 C4.25882353,14.7663866 2.73277311,14.2487395 1.67731092,13.2302521 C0.574789916,12.1680672 0.0168067222,10.594958 0.0168067222,8.55462185 C0.0168067222,6.51428571 0.574789916,4.93781513 1.67731092,3.8789916 C2.73277311,2.8605042 4.26218487,2.34285714 6.21512605,2.3394958 L6.21512605,2.3394958 L6.21512605,1.44201681 C6.21512605,0.578151261 6.75630252,0.0369747899 7.62689076,0.0369747899 C8.31941858,0.033976834 12.3034589,0.0336527306 15.5797233,0.031232905 Z M19.5563025,18.0504202 L9.91260504,18.0504202 C9.54285714,18.0504202 9.24033613,18.3529412 9.24033613,18.7226891 C9.24033613,19.092437 9.54285714,19.394958 9.91260504,19.394958 L9.91260504,19.394958 L19.5596639,19.394958 C19.9294118,19.394958 20.2285714,19.092437 20.2285714,18.7226891 C20.2285714,18.3529412 19.9260504,18.0504202 19.5563025,18.0504202 L19.5563025,18.0504202 Z M19.5596639,14.1176471 L11.4756303,14.1176471 C11.1058824,14.1176471 10.8033613,14.4201681 10.8033613,14.789916 C10.8033613,15.1596639 11.1058824,15.4621849 11.4756303,15.4621849 L11.4756303,15.4621849 L19.5596639,15.4621849 C19.9294118,15.4621849 20.2319328,15.1596639 20.2319328,14.789916 C20.2319328,14.4201681 19.9294118,14.1176471 19.5596639,14.1176471 L19.5596639,14.1176471 Z M6.23193277,3.64033613 C2.93109244,3.64033613 1.32436975,5.24705882 1.32436975,8.5512605 C1.32436975,11.8554622 2.92773109,13.4621849 6.23193277,13.4621849 C9.53277311,13.4621849 11.1394958,11.8588235 11.1394958,8.5512605 C11.1394958,6.81680672 10.7563025,5.59327731 9.9697479,4.80672269 C9.18319328,4.02016807 7.95966387,3.64033613 6.23193277,3.64033613 Z M6.22857143,4.22521008 C6.50756302,4.22521008 6.73277311,4.45042017 6.73277311,4.72941176 L6.73277311,4.72941176 L6.73277311,5.30084034 C7.15294118,5.35798319 7.54285714,5.49243697 7.85882353,5.68739496 C8.09747899,5.83529412 8.13445378,6.02689076 8.13445378,6.12773109 C8.13445378,6.38655462 7.92605042,6.59495798 7.66722689,6.59495798 C7.57310924,6.59159664 7.47563025,6.56470588 7.39159664,6.51764706 L7.39159664,6.51764706 C7.18319328,6.4 6.96470588,6.31596639 6.73613445,6.25882353 L6.73613445,6.25882353 L6.73613445,8.04033613 C8.17142857,8.28235294 8.48067227,9.13613445 8.47394958,9.82184874 C8.47394958,10.3932773 8.26554622,10.8739496 7.87226891,11.2168067 C7.57983193,11.4689076 7.18991597,11.6369748 6.72941176,11.707563 L6.72941176,11.707563 L6.72941176,12.1680672 C6.72941176,12.4470588 6.50420168,12.6722689 6.22521008,12.6722689 C5.94621849,12.6722689 5.7210084,12.4470588 5.7210084,12.1680672 L5.7210084,12.1680672 L5.7210084,11.7142857 C5.19327731,11.6403361 4.68907563,11.4420168 4.2487395,11.1394958 C4.10420168,11.0487395 4.01680672,10.887395 4.02016807,10.7159664 C4.02352941,10.4504202 4.23865546,10.2352941 4.50420168,10.2386555 C4.61848739,10.2420168 4.72605042,10.2756303 4.81680672,10.3394958 C5.09243697,10.5310924 5.40168067,10.6689076 5.72436975,10.7529412 L5.72436975,10.7529412 L5.72436975,8.86722689 C4.44705882,8.59495798 4.16806723,7.79495798 4.16806723,7.14285714 C4.16806723,6.16470588 4.76302521,5.48571429 5.72436975,5.31092437 L5.72436975,5.31092437 L5.72436975,4.72941176 C5.72436975,4.45042017 5.94957983,4.22521008 6.22857143,4.22521008 Z M19.5596639,10.1848739 L14.097479,10.1848739 C13.7277311,10.1848739 13.4252101,10.487395 13.4252101,10.8571429 C13.4252101,11.2268908 13.7277311,11.5294118 14.097479,11.5294118 L14.097479,11.5294118 L19.5596639,11.5294118 C19.9294118,11.5294118 20.2319328,11.2268908 20.2319328,10.8571429 C20.2319328,10.487395 19.9294118,10.1848739 19.5596639,10.1848739 L19.5596639,10.1848739 Z M6.73613445,9.03193277 L6.73613445,10.7596639 C7.2302521,10.6352941 7.52268908,10.312605 7.52268908,9.85546218 C7.52268908,9.52605042 7.41512605,9.20336134 6.73613445,9.03193277 L6.73613445,9.03193277 Z M5.72773109,6.27226891 C5.34453781,6.4 5.12941176,6.68907563 5.12941176,7.09915966 C5.12941176,7.37815126 5.21344538,7.67394958 5.72773109,7.85546218 L5.72773109,7.85546218 Z M17.4184874,2.32941176 L17.4184874,3.97310924 C17.4218487,4.69243697 17.5798319,5.28067227 17.8655462,5.67058824 C18.1512605,6.0605042 18.5714286,6.2487395 19.1462185,6.25210084 L19.1462185,6.25210084 L21.3378151,6.25210084 L17.4184874,2.32941176 Z" id="Pagar-factura_3Masa"></path>
        </g>
    </g>
</svg>

<svg width="24" height="24" viewBox="0 0 24 24" xmlns="http://www.w3.org/2000/svg"><path d="M16.743.03c.017 0 .033.004.05.007h.017l.06.01c.02.003.04.007.058.014l.017.003c.016.003.03.007.043.013l.014.007c.016.01.037.017.053.027l.05.03.014.01.037.027.014.01c.013.014.03.027.043.04l6.219 6.22a.517.517 0 01.04.043l.01.013.027.037.01.014.03.05.027.057.007.014c.007.016.014.03.017.043.003.007.007.01.007.017.003.017.01.034.013.054l.01.06v.017c.004.017.004.03.004.047v.292c.003 5.425 0 14.534.003 15.07-.003.853-.534 1.388-1.385 1.388H7.63c-.44 0-.79-.128-1.038-.38-.25-.252-.377-.605-.377-1.042V14.77c-1.956-.004-3.482-.521-4.538-1.54C.575 12.168.017 10.595.017 8.555s.558-3.617 1.66-4.676c1.056-1.018 2.585-1.536 4.538-1.54v-.897c0-.864.541-1.405 1.412-1.405.692-.003 4.676-.003 7.953-.006zm2.813 18.02H9.913a.674.674 0 00-.673.673c0 .37.303.672.673.672h9.647a.671.671 0 00-.004-1.345zm.004-3.932h-8.084a.674.674 0 00-.673.672c0 .37.303.672.673.672h8.084c.37 0 .672-.302.672-.672a.674.674 0 00-.672-.672zM6.232 3.64c-3.3 0-4.908 1.607-4.908 4.911 0 3.304 1.604 4.911 4.908 4.911 3.3 0 4.907-1.603 4.907-4.91 0-1.735-.383-2.959-1.17-3.745C9.184 4.02 7.96 3.64 6.233 3.64zm-.003.585c.279 0 .504.225.504.504v.572c.42.057.81.191 1.126.386.238.148.275.34.275.44a.466.466 0 01-.467.468.618.618 0 01-.275-.077 2.611 2.611 0 00-.656-.26V8.04c1.435.242 1.745 1.096 1.738 1.782 0 .571-.208 1.052-.602 1.395-.292.252-.682.42-1.143.49v.461a.504.504 0 11-1.008 0v-.454a3.449 3.449 0 01-1.472-.575.49.49 0 01-.229-.423.48.48 0 01.484-.477.567.567 0 01.313.1c.275.192.585.33.907.414V8.867c-1.277-.272-1.556-1.072-1.556-1.724 0-.978.595-1.657 1.556-1.832v-.582c0-.279.226-.504.505-.504zm13.33 5.96h-5.462a.674.674 0 00-.672.672c0 .37.303.672.672.672h5.463c.37 0 .672-.302.672-.672a.674.674 0 00-.672-.672zM6.737 9.032v1.728c.494-.125.787-.447.787-.905 0-.329-.108-.652-.787-.823zm-1.008-2.76c-.383.128-.599.417-.599.827 0 .28.084.575.599.756zm11.69-3.943v1.644c.004.72.162 1.308.448 1.698.285.39.705.578 1.28.581h2.192l-3.92-3.923z" fill="#5CB615" fill-rule="nonzero"/></svg>
